src/22/panel/pomodoneapp-break.svg

<svg xmlns="http://www.w3.org/2000/svg" width="22" height="22" version="1.1">
 <defs>
  <style id="current-color-scheme" type="text/css">
   .ColorScheme-Text { color:#bebebe; } .ColorScheme-Highlight { color:#5294e2; }
  </style>
 </defs>
 <path style="fill:currentColor" class="ColorScheme-Text" d="M 11 3 C 6.5817219 2.9999999 2.9999999 6.5817219 3 11 C 3 15.418278 6.581722 19 11 19 C 15.418278 19 19 15.418278 19 11 C 19 6.5817219 15.418278 3 11 3 z M 8.5 7 L 13.5 7 C 14.331 7 15 7.669 15 8.5 L 15 13.5 C 15 14.331 14.331 15 13.5 15 L 8.5 15 C 7.669 15 7 14.331 7 13.5 L 7 8.5 C 7 7.669 7.669 7 8.5 7 z M 9.5859375 8.3789062 C 9.4581279 8.3789062 9.3303562 8.4274563 9.2324219 8.5253906 L 8.5253906 9.2324219 C 8.329522 9.4282905 8.329522 9.7435845 8.5253906 9.9394531 L 9.5859375 11 L 8.5253906 12.060547 C 8.329522 12.256415 8.329522 12.57171 8.5253906 12.767578 L 9.2324219 13.474609 C 9.4282905 13.670478 9.7435845 13.670478 9.9394531 13.474609 L 11 12.414062 L 12.060547 13.474609 C 12.256415 13.670478 12.57171 13.670478 12.767578 13.474609 L 13.474609 12.767578 C 13.670478 12.57171 13.670478 12.256415 13.474609 12.060547 L 12.414062 11 L 13.474609 9.9394531 C 13.670478 9.7435845 13.670478 9.4282905 13.474609 9.2324219 L 12.767578 8.5253906 C 12.57171 8.329522 12.256415 8.329522 12.060547 8.5253906 L 11 9.5859375 L 9.9394531 8.5253906 C 9.8415188 8.4274563 9.7137471 8.3789062 9.5859375 8.3789062 z"/>
</svg>

<svg xmlns="http://www.w3.org/2000/svg" width="22" height="22"><defs><style id="current-color-scheme" type="text/css"></style></defs><path d="M11 3a8 8 0 1 0 0 16 8 8 0 0 0 0-16zM8.5 7h5c.831 0 1.5.669 1.5 1.5v5c0 .831-.669 1.5-1.5 1.5h-5c-.831 0-1.5-.669-1.5-1.5v-5C7 7.669 7.669 7 8.5 7zm1.086 1.379a.498.498 0 0 0-.354.146l-.707.707a.499.499 0 0 0 0 .707L9.585 11l-1.06 1.06a.499.499 0 0 0 0 .708l.707.707a.499.499 0 0 0 .707 0L11 12.415l1.06 1.06a.499.499 0 0 0 .708 0l.707-.707a.499.499 0 0 0 0-.707L12.415 11l1.06-1.06a.499.499 0 0 0 0-.708l-.707-.707a.499.499 0 0 0-.707 0L11 9.585l-1.06-1.06a.498.498 0 0 0-.354-.146z" fill="currentColor" color="#bebebe"/></svg>
